modules/stroke-7/icons/photo.svg

<?xml version="1.0" encoding="utf-8"?>
<!-- Generated by IcoMoon.io -->
<!DOCTYPE svg PUBLIC "-//W3C//DTD SVG 1.1//EN" "http://www.w3.org/Graphics/SVG/1.1/DTD/svg11.dtd">
<svg version="1.1" xmlns="http://www.w3.org/2000/svg" xmlns:xlink="http://www.w3.org/1999/xlink" width="27" height="32" viewBox="0 0 27 32">
<g id="icomoon-ignore">
</g>
<path d="M0 3.2v25.6h26.667v-25.6h-26.667zM1.067 19.307l7.467-7.84 7.413 7.413 3.733-3.2 5.547 5.653h-24.16v-2.027zM25.6 27.733h-24.533v-5.333h24.533v5.333zM25.6 20.213l-5.813-6.027-3.733 3.2-7.52-7.467-7.467 7.84v-13.493h24.533v15.947z" fill="#000000"></path>
<path d="M19.733 11.733c1.493 0 2.667-1.173 2.667-2.667s-1.173-2.667-2.667-2.667c-1.493 0-2.667 1.173-2.667 2.667s1.173 2.667 2.667 2.667zM19.733 7.467c0.907 0 1.6 0.693 1.6 1.6s-0.693 1.6-1.6 1.6c-0.907 0-1.6-0.693-1.6-1.6s0.693-1.6 1.6-1.6z" fill="#000000"></path>
</svg>

<svg xmlns="http://www.w3.org/2000/svg" width="27" height="32"><path d="M0 3.2v25.6h26.667V3.2H0zm1.067 16.107l7.467-7.84 7.413 7.413 3.733-3.2 5.547 5.653H1.067v-2.027zM25.6 27.733H1.067V22.4H25.6v5.333zm0-7.52l-5.813-6.027-3.733 3.2-7.52-7.467-7.467 7.84V4.266H25.6v15.947z"/><path d="M19.733 11.733c1.493 0 2.667-1.173 2.667-2.667s-1.173-2.667-2.667-2.667c-1.493 0-2.667 1.173-2.667 2.667s1.173 2.667 2.667 2.667zm0-4.266c.907 0 1.6.693 1.6 1.6s-.693 1.6-1.6 1.6c-.907 0-1.6-.693-1.6-1.6s.693-1.6 1.6-1.6z"/></svg>
